X: 216
T:Qui habitat in adjutorio altissimi
N: Derived from Jos1807-Qui_habitat_in_adjutorio_altissimi.krn
C: Josquin des Prez
%%abc-version 2.0
%%abcx-abcm2ps-target-version 5.9.1 (29 Sep 2008)
%%abc-creator hum2abc beta
%%abcx-conversion-date 2019/02/12 16:15:49
%%abc-edited-by Jesse Rodin
%%abc-edited-by Jesse Rodin 8-17-2012
%%abcx-initial-encoding-date 2012/08/17/
%%humdrum-veritas 971675512
%%humdrum-veritas-data 102116067
%%linebreak <none>
%%barnumbers 0
L: 1/4
M: 2/1
Q: 1/2=120
%%staves [1 2 3 4]
V: 1 clef=treble
V: 2 clef=treble-8
V: 3 clef=treble-8
V: 4 clef=bass
K: F
[V:1] G,4G,2G,2 | 
[V:2] z8 | 
[V:3] z8 | 
[V:4] z8 | 
[V:1] D6G,2 | 
[V:2] z8 | 
[V:3] z8 | 
[V:4] z8 | 
[V:1] D2G,2D2E2 | 
[V:2] G4G2G2 | 
[V:3] z8 | 
[V:4] z8 | 
[V:1] F4B,4 | 
[V:2] d6G2 | 
[V:3] z8 | 
[V:4] z8 | 
[V:1] B6B2 | 
[V:2] d2G2d2e2 | 
[V:3] G4G2G2 | 
[V:4] z8 | 
[V:1] A4A2B2- | 
[V:2] f4d2d2- | 
[V:3] d6G2 | 
[V:4] z8 | 
[V:1] BAGFG2G2 | 
[V:2] dcBAB2B2 | 
[V:3] d2G2d2e2 | 
[V:4] G,,4G,,2G,,2 | 
[V:1] A4z4 | 
[V:2] A2d3cB2- | 
[V:3] f4d2d2- | 
[V:4] D,6G,,2 | 
[V:1] z8 | 
[V:2] BAG2F2G2 | 
[V:3] dcBAB2B2 | 
[V:4] D,2G,,2D,2E,2 | 
[V:1] A4A2A2- | 
[V:2] D8 | 
[V:3] A4z2d2 | 
[V:4] F,6F,2 | 
[V:1] A2A2B4 | 
[V:2] z4d4 | 
[V:3] c2d4B2 | 
[V:4] F,4G,4 | 
[V:1] A4B4 | 
[V:2] d4d4- | 
[V:3] f4B4 | 
[V:4] D,4z2G,2 | 
[V:1] A2B4AG | 
[V:2] d2d2_e4 | 
[V:3] z8 | 
[V:4] F,2G,4_E,2 | 
[V:1] F4z2G2 | 
[V:2] d4_e4 | 
[V:3] z8 | 
[V:4] B,4_E,4 | 
[V:1] F2G4F_E | 
[V:2] d2_e4dc | 
[V:3] z8 | 
[V:4] z8 | 
[V:1] D4z4 | 
[V:2] B4z4 | 
[V:3] z2d2c2d2- | 
[V:4] z2B,2A,2B,2- | 
[V:1] z8 | 
[V:2] z4z2d2 | 
[V:3] d2cBA4 | 
[V:4] B,2A,G,F,2D,2 | 
[V:1] z2B2A2B2- | 
[V:2] d2d3cBA | 
[V:3] z8 | 
[V:4] z2G,2F,2G,2- | 
[V:1] BAG4^F2 | 
[V:2] G4A4 | 
[V:3] z4z2d2 | 
[V:4] G,F,E,D,C,2D,2 | 
[V:1] G2B2A2B2- | 
[V:2] G4z4 | 
[V:3] d2d3cBA | 
[V:4] G,,4z4 | 
[V:1] BAG4^F2 | 
[V:2] z8 | 
[V:3] G4A4 | 
[V:4] z8 | 
[V:1] G4z4 | 
[V:2] z8 | 
[V:3] G2B2A2B2- | 
[V:4] z4D,4- | 
[V:1] z8 | 
[V:2] z8 | 
[V:3] BAG4^F2 | 
[V:4] D,2B,,2C,2D,2 | 
[V:1] z8 | 
[V:2] d6B2 | 
[V:3] G8 | 
[V:4] G,,2G,2G,2G,2 | 
[V:1] z8 | 
[V:2] c2d2G4 | 
[V:3] z8 | 
[V:4] F,2D,2E,4 | 
[V:1] A6F2 | 
[V:2] z2d2d2d2 | 
[V:3] z8 | 
[V:4] D,8 | 
[V:1] G2A2D4 | 
[V:2] c2A2B4 | 
[V:3] z8 | 
[V:4] z8 | 
[V:1] z2A2A2A2 | 
[V:2] AGFED2d2- | 
[V:3] A6F2 | 
[V:4] z8 | 
[V:1] G2E2F4 | 
[V:2] dBc2d4 | 
[V:3] G2A2D4 | 
[V:4] z8 | 
[V:1] E2F2F2D2 | 
[V:2] z2A2A2B2 | 
[V:3] z2d2d2d2 | 
[V:4] z2D,2D,2B,,2 | 
[V:1] E2F2G4 | 
[V:2] G2F2d4- | 
[V:3] c2A2B4 | 
[V:4] C,2D,2G,,4 | 
[V:1] A8 | 
[V:2] d4d4 | 
[V:3] A4z2d2 | 
[V:4] D,8 | 
[V:1] z2A2A2c2- | 
[V:2] z8 | 
[V:3] d2f3fc2 | 
[V:4] z8 | 
[V:1] ccG2B4 | 
[V:2] z8 | 
[V:3] _e4d4- | 
[V:4] z8 | 
[V:1] A8 | 
[V:2] z4z2A2 | 
[V:3] d4z4 | 
[V:4] z2D,2D,2F,2- | 
[V:1] z8 | 
[V:2] A2c3cG2 | 
[V:3] z8 | 
[V:4] F,F,C,2_E,4 | 
[V:1] z4A4 | 
[V:2] B4A4 | 
[V:3] z4z2d2- | 
[V:4] D,8 | 
[V:1] A2B4AG | 
[V:2] z8 | 
[V:3] d2d2B3c | 
[V:4] z8 | 
[V:1] B4A4 | 
[V:2] z4d4 | 
[V:3] d8 | 
[V:4] z4D,4 | 
[V:1] z4G4 | 
[V:2] B4c4- | 
[V:3] z8 | 
[V:4] D,2_E,4D,C, | 
[V:1] G4F3E | 
[V:2] c4d4 | 
[V:3] G4A4 | 
[V:4] _E,4D,4 | 
[V:1] DEFGA2B2 | 
[V:2] z2d2d2d2 | 
[V:3] B2A2f2d2 | 
[V:4] z2D,2D,2B,,2 | 
[V:1] A2G3^FFE | 
[V:2] c3BA4 | 
[V:3] _e4d3c | 
[V:4] C,4D,4 | 
[V:1] G4z2D2 | 
[V:2] G4d4 | 
[V:3] BAB4AG | 
[V:4] G,,8 | 
[V:1] FEFGA2B2 | 
[V:2] z2d2d2d2 | 
[V:3] F2f2f2d2 | 
[V:4] z2D,2D,2B,,2 | 
[V:1] A2G3^FFE/F/ | 
[V:2] c3BA4 | 
[V:3] _e4d4 | 
[V:4] C,4D,4 | 
[V:1] G4z2D2 | 
[V:2] G8 | 
[V:3] B4z2B2 | 
[V:4] G,,4z2G,,2 | 
[V:1] D2D2E4 | 
[V:2] z4G4- | 
[V:3] B2B2c4 | 
[V:4] G,,2G,,2C,4 | 
[V:1] D2G4E2 | 
[V:2] G2G2G2A2- | 
[V:3] B4z4 | 
[V:4] G,,4z4 | 
[V:1] F2G2E2C2 | 
[V:2] A2G2c3A | 
[V:3] z8 | 
[V:4] z8 | 
[V:1] D2E2C2A,2 | 
[V:2] B2c2A2F2 | 
[V:3] z8 | 
[V:4] z8 | 
[V:1] B,2C2A,2D2 | 
[V:2] G2A2F2D2 | 
[V:3] z8 | 
[V:4] z8 | 
[V:1] C2D3EFD | 
[V:2] E2F2D2d2 | 
[V:3] z8 | 
[V:4] z8 | 
[V:1] E2DEFGA2- | 
[V:2] c2f3ed2 | 
[V:3] z8 | 
[V:4] z8 | 
[V:1] AGG4^F2 | 
[V:2] cBAGA2A2 | 
[V:3] z8 | 
[V:4] z8 | 
[V:1] G8 | 
[V:2] G8 | 
[V:3] z4G4 | 
[V:4] z8 | 
[V:1] z4D4 | 
[V:2] z8 | 
[V:3] G2G2B4- | 
[V:4] G,,4G,,2G,,2 | 
[V:1] D2D2F4- | 
[V:2] D4D2D2 | 
[V:3] B4A4 | 
[V:4] B,,3C,D,4 | 
[V:1] F2EDF4 | 
[V:2] F3GA4- | 
[V:3] d4d4 | 
[V:4] D,2D,2D,4 | 
[V:1] E4z2G2 | 
[V:2] A4G4- | 
[V:3] c4c4 | 
[V:4] A,,2C,4B,,A,, | 
[V:1] G2G4DE | 
[V:2] G2G2G4 | 
[V:3] B2G2B4 | 
[V:4] G,,8 | 
[V:1] FGA4GF | 
[V:2] D4A4- | 
[V:3] A4c4- | 
[V:4] z8 | 
[V:1] E4z4 | 
[V:2] A4G4 | 
[V:3] c2c2c2c2 | 
[V:4] C,6C,2 | 
[V:1] G6G2 | 
[V:2] z8 | 
[V:3] c2G2c4 | 
[V:4] C,2C,2C,4 | 
[V:1] G2G2E4 | 
[V:2] G6G2 | 
[V:3] B4G4 | 
[V:4] G,,4C,4 | 
[V:1] D4G4 | 
[V:2] G2G2G4 | 
[V:3] z4G4 | 
[V:4] B,,4G,,4 | 
[V:1] F4D4 | 
[V:2] D4G4 | 
[V:3] d4z2B2 | 
[V:4] z4G,,4 | 
[V:1] z8 | 
[V:2] F4D4 | 
[V:3] A2A2d4 | 
[V:4] D,4z2B,,2 | 
[V:1] z8 | 
[V:2] A4z2F2 | 
[V:3] c4A3B | 
[V:4] A,,2A,,2D,4 | 
[V:1] z8 | 
[V:2] E2E2A4 | 
[V:3] c4C3D | 
[V:4] C,4A,,3B,, | 
[V:1] z8 | 
[V:2] G2c2c2c2- | 
[V:3] E4C3D | 
[V:4] C,4A,,3B,, | 
[V:1] z8 | 
[V:2] cBA4G2 | 
[V:3] E2F2D4 | 
[V:4] C,2D,2B,,4 | 
[V:1] z8 | 
[V:2] A2c2B2c2- | 
[V:3] E2A2G2A2- | 
[V:4] A,,4z2A,,2 | 
[V:1] z8 | 
[V:2] c2BAG4 | 
[V:3] A2GFE4 | 
[V:4] C,4C,4 | 
[V:1] z8 | 
[V:2] z2B2A2B2- | 
[V:3] z2d2c2d2- | 
[V:4] G,,4z2G,,2 | 
[V:1] z8 | 
[V:2] B2AGF4- | 
[V:3] d2cBA4 | 
[V:4] D,4D,4 | 
[V:1] z8 | 
[V:2] F2EDE2F2- | 
[V:3] c3BAGB2- | 
[V:4] A,,3B,,C,2D,2- | 
[V:1] z8 | 
[V:2] FED4C2 | 
[V:3] BAG4^F2 | 
[V:4] D,2B,,2A,,4 | 
[V:1] z4G4 | 
[V:2] D8 | 
[V:3] G8- | 
[V:4] G,,8- | 
[V:1] B6B2 | 
[V:2] z4d4 | 
[V:3] G8 | 
[V:4] G,,8 | 
[V:1] A2F2A4 | 
[V:2] f6f2 | 
[V:3] z4A4 | 
[V:4] D,8 | 
[V:1] G4G4 | 
[V:2] _e2c2_e4 | 
[V:3] c6c2 | 
[V:4] z4C,4 | 
[V:1] B4B4 | 
[V:2] d4B4 | 
[V:3] B2G2d3e | 
[V:4] G,6G,2 | 
[V:1] A4A4 | 
[V:2] c4d4 | 
[V:3] f8 | 
[V:4] F,3E,D,4 | 
[V:1] B6B2 | 
[V:2] B3cd2e2 | 
[V:3] z4B4 | 
[V:4] G,,4G,4 | 
[V:1] A4A4 | 
[V:2] f4f4 | 
[V:3] c4d4 | 
[V:4] F,4D,4 | 
[V:1] B2B2B4 | 
[V:2] d2d2B4 | 
[V:3] B3cd2e2 | 
[V:4] G,2G,2G,2G,2 | 
[V:1] A4A2B2- | 
[V:2] c4d4 | 
[V:3] f4f4 | 
[V:4] F,4D,4 | 
[V:1] BAGFG2G2 | 
[V:2] G6G2 | 
[V:3] B2B2c4 | 
[V:4] _E,2E,2E,4 | 
[V:1] F4F2G2- | 
[V:2] A4D4 | 
[V:3] d4d4 | 
[V:4] D,4B,,4 | 
[V:1] GFEDE2E2 | 
[V:2] E6E2 | 
[V:3] G3FG2A2 | 
[V:4] C,6C,2 | 
[V:1] D4F4 | 
[V:2] F8 | 
[V:3] B4z4 | 
[V:4] B,,8 | 
[V:1] G4G4 | 
[V:2] z8 | 
[V:3] B4c4 | 
[V:4] z8 | 
[V:1] A4F4 | 
[V:2] z8 | 
[V:3] c4d4 | 
[V:4] z8 | 
[V:1] G4A4- | 
[V:2] z8 | 
[V:3] B4c4 | 
[V:4] z8 | 
[V:1] A2A2A4 | 
[V:2] z8 | 
[V:3] d6d2 | 
[V:4] z8 | 
[V:1] A4B3A | 
[V:2] z8 | 
[V:3] d6B2 | 
[V:4] z8 | 
[V:1] G2F2_E4 | 
[V:2] z8 | 
[V:3] _e2d2c4 | 
[V:4] z8 | 
[V:1] D8 | 
[V:2] F4G4 | 
[V:3] d8 | 
[V:4] z4B,,4 | 
[V:1] z8 | 
[V:2] G4A4 | 
[V:3] z8 | 
[V:4] C,4C,4 | 
[V:1] z8 | 
[V:2] F4G4 | 
[V:3] z4D4 | 
[V:4] D,4B,,4 | 
[V:1] z8 | 
[V:2] A6A2 | 
[V:3] E4F4- | 
[V:4] C,4D,4- | 
[V:1] z8 | 
[V:2] B2A2c3B | 
[V:3] F2F2G3F | 
[V:4] D,2D,2_E,3D, | 
[V:1] z8 | 
[V:2] A2G2^F4 | 
[V:3] E2D2C4 | 
[V:4] C,2B,,2A,,4 | 
[V:1] B4G4 | 
[V:2] G8 | 
[V:3] D4B4 | 
[V:4] G,,8 | 
[V:1] A6A2 | 
[V:2] z8 | 
[V:3] c4d4- | 
[V:4] z8 | 
[V:1] B2A2c3B | 
[V:2] z8 | 
[V:3] d2d2_e3d | 
[V:4] z8 | 
[V:1] A2G2^F4 | 
[V:2] z8 | 
[V:3] c2B2A4 | 
[V:4] z8 | 
[V:1] G8 | 
[V:2] z4d4 | 
[V:3] G8 | 
[V:4] G,4B,4- | 
[V:1] z8 | 
[V:2] f6f2 | 
[V:3] z8 | 
[V:4] B,2B,2A,2F,2 | 
[V:1] z8 | 
[V:2] e2c2d2e2 | 
[V:3] z8 | 
[V:4] G,2A,2D,2A,2- | 
[V:1] z8 | 
[V:2] c2d4^c2 | 
[V:3] z8 | 
[V:4] A,G,F,2E,4 | 
[V:1] z4D4 | 
[V:2] d8 | 
[V:3] A4B4- | 
[V:4] D,8 | 
[V:1] F6F2 | 
[V:2] z8 | 
[V:3] B2B2A2F2 | 
[V:4] z8 | 
[V:1] E2C2D3E | 
[V:2] z8 | 
[V:3] G2A2B4- | 
[V:4] z8 | 
[V:1] F2G3^FFE | 
[V:2] z8 | 
[V:3] B2G2A4 | 
[V:4] z8 | 
[V:1] G8 | 
[V:2] z4d4 | 
[V:3] G8 | 
[V:4] G,4B,4- | 
[V:1] z8 | 
[V:2] f6f2 | 
[V:3] z8 | 
[V:4] B,2B,2B,2B,2 | 
[V:1] z8 | 
[V:2] f2f2e2c2 | 
[V:3] z8 | 
[V:4] A,2F,2G,2A,2 | 
[V:1] z4A4 | 
[V:2] d2A2d4 | 
[V:3] z8 | 
[V:4] F,3D,D,4 | 
[V:1] c6A2 | 
[V:2] c8 | 
[V:3] A6A2 | 
[V:4] z8 | 
[V:1] B4A4 | 
[V:2] d4f4- | 
[V:3] G3FD4 | 
[V:4] z4z2D,2- | 
[V:1] z2F2G2A2 | 
[V:2] f2d2_e4 | 
[V:3] z8 | 
[V:4] D,2D,2C,3B,, | 
[V:1] B4A4 | 
[V:2] d2B2c2d2 | 
[V:3] z8 | 
[V:4] G,,4z4 | 
[V:1] G4z4 | 
[V:2] _e4d4 | 
[V:3] z2_E2F2D2 | 
[V:4] z2C,2D,2B,,2 | 
[V:1] z8 | 
[V:2] c4z2A2 | 
[V:3] E2G3^F^F=E | 
[V:4] C,4D,4 | 
[V:1] z4z2D2 | 
[V:2] B2G2B4 | 
[V:3] G8 | 
[V:4] G,,8 | 
[V:1] E2F2G2G2 | 
[V:2] A4G4 | 
[V:3] z2D2E3F | 
[V:4] z8 | 
[V:1] B2B2A4 | 
[V:2] z8 | 
[V:3] G2D2F2F2 | 
[V:4] z2G,,2A,,3B,, | 
[V:1] G4z4 | 
[V:2] z4z2D2 | 
[V:3] E4D2d2 | 
[V:4] C,2G,,2B,,2B,,2 | 
[V:1] z8 | 
[V:2] E3FG2G2 | 
[V:3] c2A2B3c | 
[V:4] A,,4G,,4 | 
[V:1] z2G2A2F2 | 
[V:2] B2B2A4 | 
[V:3] d2B2c2d2 | 
[V:4] G,4F,2D,2 | 
[V:1] G4F2B2 | 
[V:2] G4z2G2 | 
[V:3] B3cd2B2 | 
[V:4] _E,4D,2G,2 | 
[V:1] A2F2G4 | 
[V:2] A2B2G3A | 
[V:3] c2d2B3c | 
[V:4] F,2D,2_E,4 | 
[V:1] F2F2G2G2 | 
[V:2] B2B2G3A | 
[V:3] d2d2B2c2 | 
[V:4] D,2B,,2_E,3E, | 
[V:1] F2F2G4 | 
[V:2] B2B2G4 | 
[V:3] d2d2B3c | 
[V:4] D,2B,,2_E,4 | 
[V:1] F2F2G2G2 | 
[V:2] A2B2G2_E2 | 
[V:3] d2d2B2G2 | 
[V:4] D,2B,,2_E,2E,2 | 
[V:1] F2D2_E4 | 
[V:2] F2G2_E3F | 
[V:3] A2B2G3A | 
[V:4] D,2B,,2C,3B,, | 
[V:1] D8- | 
[V:2] G8- | 
[V:3] B8 | 
[V:4] G,,8- | 
[V:1] D8- | 
[V:2] G8 | 
[V:3] z2G2B2G2 | 
[V:4] G,,8 | 
[V:1] D8 | 
[V:2] z2G2D2G2 | 
[V:3] B2G2B3c | 
[V:4] G,,4G,,2G,,2 | 
[V:1] z2D2D2D2 | 
[V:2] F2G2D2G2 | 
[V:3] d2B2B4 | 
[V:4] B,,2G,,2B,,3C, | 
[V:1] F2D2F3G | 
[V:2] F8 | 
[V:3] A2f3ed2- | 
[V:4] D,2B,,C,D,E,F,2- | 
[V:1] A2F2E4 | 
[V:2] D4E4 | 
[V:3] dcB4A2 | 
[V:4] F,2D,2C,4 | 
[V:1] D4z2G2 | 
[V:2] F2D2G3G | 
[V:3] B4z2B2 | 
[V:4] B,,4z2G,,2 | 
[V:1] G3AB2B2 | 
[V:2] G2_E2F2G2- | 
[V:3] _e3_ed2B2 | 
[V:4] C,3C,B,,2G,,2 | 
[V:1] G4c4 | 
[V:2] G2G2_E3F | 
[V:3] _e4_e4 | 
[V:4] C,4C,4 | 
[V:1] B4G2B2 | 
[V:2] G4G4 | 
[V:3] d2G2B2G2 | 
[V:4] G,,8 | 
[V:1] G2B3AF2 | 
[V:2] G4d4 | 
[V:3] d4z4 | 
[V:4] z4G,2B,2 | 
[V:1] G4D4 | 
[V:2] B2d3cA2 | 
[V:3] z8 | 
[V:4] G,2B,3A,F,2 | 
[V:1] z8 | 
[V:2] B4A4 | 
[V:3] z2d2f2d2 | 
[V:4] G,4D,4 | 
[V:1] z2D2F2D2 | 
[V:2] d2f2d2f2- | 
[V:3] f4B4 | 
[V:4] z8 | 
[V:1] A4z2A2- | 
[V:2] fec2d4 | 
[V:3] A4z2A2- | 
[V:4] D,2F,2D,2F,2- | 
[V:1] AGE2F4 | 
[V:2] A8- | 
[V:3] ABc2F4 | 
[V:4] F,E,C,2D,4 | 
[V:1] E8 ||  
[V:2] A8 ||  
[V:3] c8 ||  
[V:4] A,,8 ||  
[V:1]  [K:F] [K:clef=treble][M:3/1]G4G4G4 | 
[V:2]  [K:F] [K:clef=treble-8][M:3/1]z12 | 
[V:3]  [K:F] [K:clef=treble-8][M:3/1]z12 | 
[V:4]  [K:F] [K:clef=bass][M:3/1]z12 | 
[V:1] B8G4 | 
[V:2] z12 | 
[V:3] G4G4G4 | 
[V:4] z12 | 
[V:1] F4B8 | 
[V:2] z12 | 
[V:3] B8G4 | 
[V:4] z12 | 
[V:1] A8z4 | 
[V:2] z12 | 
[V:3] F4d8 | 
[V:4] D,4D,4D,4 | 
[V:1] z12 | 
[V:2] A4A4A4 | 
[V:3] c6F2F4 | 
[V:4] F,8D,4 | 
[V:1] z12 | 
[V:2] c8A4 | 
[V:3] z12 | 
[V:4] C,4F,8 | 
[V:1] G4G4G4 | 
[V:2] G4c8 | 
[V:3] z12 | 
[V:4] E,4C,6B,,2 | 
[V:1] B8G4 | 
[V:2] B8z4 | 
[V:3] G4G4G4 | 
[V:4] G,,12 | 
[V:1] F4B6B2 | 
[V:2] d4d4d4 | 
[V:3] B6A2G4 | 
[V:4] z12 | 
[V:1] A4F4z4 | 
[V:2] f8d4 | 
[V:3] F8z4 | 
[V:4] D,4D,4D,4 | 
[V:1] z12 | 
[V:2] c4f6f2 | 
[V:3] A4A4A4 | 
[V:4] F,8D,4 | 
[V:1] z12 | 
[V:2] e4c4z4 | 
[V:3] c8A4 | 
[V:4] C,4F,6F,2 | 
[V:1] z12 | 
[V:2] z12 | 
[V:3] G4c6c2 | 
[V:4] E,4C,8 | 
[V:1] z12 | 
[V:2] d6d2d4 | 
[V:3] B4G4B4 | 
[V:4] G,6G,2G,4 | 
[V:1] z12 | 
[V:2] d4d6c2 | 
[V:3] A4B4G4 | 
[V:4] F,4G,6E,2 | 
[V:1] z12 | 
[V:2] d4_e6d2 | 
[V:3] A4B8 | 
[V:4] F,4G,8 | 
[V:1] A6A2A4 | 
[V:2] d12- | 
[V:3] A8F4 | 
[V:4] D,12 | 
[V:1] A4B6G2 | 
[V:2] d12- | 
[V:3] D4G6G2 | 
[V:4] z12 | 
[V:1] A4B8 | 
[V:2] d12 | 
[V:3] F4G8 | 
[V:4] z12 | 
[V:1] A8z4 | 
[V:2] d4d4d4 | 
[V:3] D12- | 
[V:4] z12 | 
[V:1] A4A4A4 | 
[V:2] f8d4 | 
[V:3] D12 | 
[V:4] z12 | 
[V:1] c8A4 | 
[V:2] c4f8 | 
[V:3] z12 | 
[V:4] z12 | 
[V:1] G4c8 | 
[V:2] _e8c4 | 
[V:3] z12 | 
[V:4] z12 | 
[V:1] B4G4A4 | 
[V:2] d4_e4c4 | 
[V:3] z12 | 
[V:4] z12 | 
[V:1] B6A2G4 | 
[V:2] d4B6c2 | 
[V:3] z12 | 
[V:4] z12 | 
[V:1] (3:2:2F4B8 | 
[V:2] [M:2/1]d8 | 
[V:3] [M:2/1]z4z2d2- | 
[V:4] [M:2/1]D,4G,4 | 
[V:1] [M:2/1]A8 | 
[V:2] z4z2c2- | 
[V:3] d2d2c2A2 | 
[V:4] F,2D,2F,3E, | 
[V:1] z2G4G2 | 
[V:2] c2c2B2G2 | 
[V:3] c3BG2B2 | 
[V:4] C,2C,2_E,3E, | 
[V:1] F2D2F3E | 
[V:2] B3AF2A2 | 
[V:3] B2B2A2FG | 
[V:4] D,2B,,C,D,_E,F,2- | 
[V:1] C2C2G3G | 
[V:2] A3AGABc | 
[V:3] ABc3BG2 | 
[V:4] F,2C,2_E,4 | 
[V:1] F2DEFGA2- | 
[V:2] d2f3edc | 
[V:3] B4A4 | 
[V:4] D,2B,,C,D,E,F,2 | 
[V:1] AGG4^F2 | 
[V:2] B2c2A4 | 
[V:3] d2_e2d4 | 
[V:4] G,2C,2D,4 | 
[V:1] G8 | 
[V:2] G8 | 
[V:3] B6AG | 
[V:4] G,,4z2G,2 | 
[V:1] z8 | 
[V:2] z2d2d3d | 
[V:3] B4A4 | 
[V:4] G,3G,F,2D,2 | 
[V:1] z8 | 
[V:2] c2A2c4 | 
[V:3] z8 | 
[V:4] F,4_E,4 | 
[V:1] z4z2A2 | 
[V:2] B4A4 | 
[V:3] z2d2d3d | 
[V:4] D,8 | 
[V:1] A3AG2E2 | 
[V:2] z8 | 
[V:3] c2A2c4 | 
[V:4] z8 | 
[V:1] G4F4 | 
[V:2] z2G2A2F2 | 
[V:3] B4A4 | 
[V:4] z2G,,2D,4 | 
[V:1] E4z4 | 
[V:2] G2A4G2 | 
[V:3] z2c2d4 | 
[V:4] C,2A,,2B,,4 | 
[V:1] z2E2G4 | 
[V:2] A4z4 | 
[V:3] c2A2B4 | 
[V:4] A,,4z2G,,2 | 
[V:1] F2D2E4 | 
[V:2] z2F2c3c | 
[V:3] A8 | 
[V:4] D,3D,C,2A,,2 | 
[V:1] D8 | 
[V:2] d6c2 | 
[V:3] D6EF | 
[V:4] B,,C,D,E,F,G,A,2- | 
[V:1] z8 | 
[V:2] B3GA4 | 
[V:3] G2E2D4 | 
[V:4] A,G,G,4^F,2 | 
[V:1] z2D2B,2G,2 | 
[V:2] G8 | 
[V:3] z4z2d2 | 
[V:4] G,8 | 
[V:1] D3EFGA2- | 
[V:2] z8 | 
[V:3] B2G2d4 | 
[V:4] z8 | 
[V:1] AGG4^F2 | 
[V:2] z8 | 
[V:3] c2B2A4 | 
[V:4] z8 | 
[V:1] G8 | 
[V:2] z8 | 
[V:3] G8 | 
[V:4] z4G,4- | 
[V:1] z8 | 
[V:2] d6d2 | 
[V:3] z8 | 
[V:4] G,2G,2F,2G,2 | 
[V:1] z8 | 
[V:2] c2d2G2d2- | 
[V:3] z8 | 
[V:4] C,2G,4G,2 | 
[V:1] z8 | 
[V:2] d2d2c2d2 | 
[V:3] z8 | 
[V:4] F,2G,2C,2G,2- | 
[V:1] z8 | 
[V:2] G2d3cBA | 
[V:3] z8 | 
[V:4] G,2G,2G,4 | 
[V:1] z4A4- | 
[V:2] B4A4 | 
[V:3] d6d2 | 
[V:4] D,8 | 
[V:1] A2A2G2A2 | 
[V:2] z8 | 
[V:3] c2d2G2d2- | 
[V:4] z8 | 
[V:1] D2A4A2 | 
[V:2] z8 | 
[V:3] d2d2c2d2 | 
[V:4] z8 | 
[V:1] G2A2D2A2- | 
[V:2] z8 | 
[V:3] G2d4d2 | 
[V:4] z8 | 
[V:1] AGFEF4 | 
[V:2] z8 | 
[V:3] d4A2d2 | 
[V:4] z8 | 
[V:1] E2A2G2E2 | 
[V:2] z8 | 
[V:3] c2A2c4 | 
[V:4] z8 | 
[V:1] G4F2D2 | 
[V:2] z8 | 
[V:3] B2G2B4 | 
[V:4] z8 | 
[V:1] F4E2CD | 
[V:2] z8 | 
[V:3] A2FGABc2- | 
[V:4] z8 | 
[V:1] EFG4^F2 | 
[V:2] z8 | 
[V:3] cBG2A4 | 
[V:4] z8 | 
[V:1] G2B2A2F2 | 
[V:2] z2d2f3f | 
[V:3] G4z2d2 | 
[V:4] z2G,2F,2D,2 | 
[V:1] A4G2E2 | 
[V:2] f2c2z2_e2 | 
[V:3] c2A2c4 | 
[V:4] F,4_E,2C,2 | 
[V:1] G4F2D2 | 
[V:2] _e2B2d4 | 
[V:3] B2G2B2B2 | 
[V:4] _E,4D,2B,,2 | 
[V:1] E2G3^FFE | 
[V:2] c4d4 | 
[V:3] A2G2A4 | 
[V:4] C,2_E,2D,4 | 
[V:1] G4z2D2 | 
[V:2] B4z2B2 | 
[V:3] G4z2G2 | 
[V:4] G,,4z2G,,2 | 
[V:1] D2D2D2D2 | 
[V:2] A2B2A2B2 | 
[V:3] F2G2F2G2 | 
[V:4] D,2G,,2D,2G,,2 | 
[V:1] F4E4 | 
[V:2] A3Bcdec | 
[V:3] F4G3A | 
[V:4] D,4C,4 | 
[V:1] D4z4 | 
[V:2] d2f3ff2 | 
[V:3] B4d3c | 
[V:4] B,,4B,3A, | 
[V:1] z8 | 
[V:2] e2d4^c2 | 
[V:3] B2A2G4 | 
[V:4] G,2F,2E,4 | 
[V:1] z4F3E | 
[V:2] d4z4 | 
[V:3] A4d3c | 
[V:4] D,8 | 
[V:1] D2C2B,4 | 
[V:2] z8 | 
[V:3] B2A2G4 | 
[V:4] z8 | 
[V:1] A,4z2A2 | 
[V:2] z4d4 | 
[V:3] A4z2A2 | 
[V:4] z4z2D,2 | 
[V:1] A2D2G4 | 
[V:2] c2B2c4 | 
[V:3] A2B2G4 | 
[V:4] F,2G,2E,4 | 
[V:1] F4z2F2 | 
[V:2] d4z2d2 | 
[V:3] A8 | 
[V:4] D,4z2D,2 | 
[V:1] G2A2D2E2 | 
[V:2] G2d4c2 | 
[V:3] z2A2B2A2 | 
[V:4] _E,2D,2B,,2C,2 | 
[V:1] F2D2F3D | 
[V:2] A2d4A2 | 
[V:3] F2G2A2F2 | 
[V:4] D,2G,,2D,4 | 
[V:1] E2G3^FFE | 
[V:2] cd_ecd4 | 
[V:3] G4A4 | 
[V:4] C,3_E,D,4 | 
[V:1] G8 | 
[V:2] B4z2G2 | 
[V:3] G8 | 
[V:4] G,,8 | 
[V:1] z8 | 
[V:2] GABcd2GA | 
[V:3] z8 | 
[V:4] z2G,,2G,,A,,B,,C, | 
[V:1] z8 | 
[V:2] Bcd4cB | 
[V:3] z8 | 
[V:4] D,2G,,A,,B,,C,D,2- | 
[V:1] z8 | 
[V:2] A2d2c2A2 | 
[V:3] z8 | 
[V:4] D,2C,B,,A,,2D,2 | 
[V:1] z8 | 
[V:2] c3cG2c2 | 
[V:3] z8 | 
[V:4] C,2A,,2C,2C,2 | 
[V:1] z8 | 
[V:2] B2G2z2B2 | 
[V:3] z8 | 
[V:4] G,,2C,2B,,2G,,2 | 
[V:1] z8 | 
[V:2] c2d2G2d2 | 
[V:3] z8 | 
[V:4] z2B,,2C,2D,2 | 
[V:1] z8 | 
[V:2] d3dA2d2 | 
[V:3] z8 | 
[V:4] G,,2D,2D,3D, | 
[V:1] z8 | 
[V:2] c2A2c3c | 
[V:3] z8 | 
[V:4] A,,2D,2C,2A,,2 | 
[V:1] z8 | 
[V:2] G2c2B2G2 | 
[V:3] z8 | 
[V:4] C,3C,G,,2C,2 | 
[V:1] z8 | 
[V:2] d3dA2d2 | 
[V:3] z8 | 
[V:4] B,,2G,,2D,3D, | 
[V:1] z8 | 
[V:2] c2A2c3B | 
[V:3] z8 | 
[V:4] A,,2D,2C,2A,,2 | 
[V:1] z8 | 
[V:2] AGG4^F2 | 
[V:3] z8 | 
[V:4] C,B,,A,,G,,A,,4 | 
[V:1] z8 | 
[V:2] G8- | 
[V:3] z4G4- | 
[V:4] G,,8- | 
[V:1] z4G,4- | 
[V:2] G8- | 
[V:3] G2A2B2G2 | 
[V:4] G,,8- | 
[V:1] G,2A,2B,2G,2 | 
[V:2] G8 | 
[V:3] d6e2 | 
[V:4] G,,8 | 
[V:1] D6E2 | 
[V:2] z8 | 
[V:3] f2B4AG | 
[V:4] z8 | 
[V:1] F4B,4 | 
[V:2] z8 | 
[V:3] F2f2d2f2- | 
[V:4] z8 | 
[V:1] z2F2D2F2- | 
[V:2] z8 | 
[V:3] fedcB2AG | 
[V:4] z8 | 
[V:1] FED2C4 | 
[V:2] z8 | 
[V:3] F2B4A2 | 
[V:4] z8 | 
[V:1] B,8 | 
[V:2] z4G4- | 
[V:3] B8 | 
[V:4] z8 | 
[V:1] z8 | 
[V:2] G2A2B2G2 | 
[V:3] z8 | 
[V:4] z4G,,4- | 
[V:1] z8 | 
[V:2] d6e2 | 
[V:3] z8 | 
[V:4] G,,2A,,2B,,2G,,2 | 
[V:1] z8 | 
[V:2] f4B4 | 
[V:3] z8 | 
[V:4] D,6E,2 | 
[V:1] z8 | 
[V:2] z2f2d2f2- | 
[V:3] z8 | 
[V:4] F,4B,,4 | 
[V:1] z8 | 
[V:2] fedcB2A2 | 
[V:3] z8 | 
[V:4] z2F,2D,2F,2- | 
[V:1] z8 | 
[V:2] F2B4A2 | 
[V:3] z8 | 
[V:4] F,E,D,2C,4 | 
[V:1] z2D2D2D2 | 
[V:2] B8 | 
[V:3] z4z2d2 | 
[V:4] B,,8 | 
[V:1] B,2D3CB,A, | 
[V:2] z8 | 
[V:3] d2d2B2d2- | 
[V:4] z8 | 
[V:1] G,2D2D2D2 | 
[V:2] z8 | 
[V:3] dcBAG4 | 
[V:4] z8 | 
[V:1] F8 | 
[V:2] z4z2d2 | 
[V:3] F8 | 
[V:4] z2D,2D,2D,2 | 
[V:1] z8 | 
[V:2] d2d2B2d2- | 
[V:3] z8 | 
[V:4] B,,2D,3C,B,,A,, | 
[V:1] z2D2D2D2 | 
[V:2] dcBAG2B2 | 
[V:3] z2G2G2G2 | 
[V:4] G,,4z2G,,2 | 
[V:1] FGA3GG2- | 
[V:2] A2F2c3B | 
[V:3] F4G4 | 
[V:4] D,2D,2C,4 | 
[V:1] G2^F2G2D2 | 
[V:2] A4G4 | 
[V:3] D4z2G2 | 
[V:4] D,4G,,4 | 
[V:1] D2D2FGA2- | 
[V:2] z2B2A2F2 | 
[V:3] G2G2F4 | 
[V:4] z2G,,2D,2D,2 | 
[V:1] AGG4^F2 | 
[V:2] c3BA4 | 
[V:3] G4D4 | 
[V:4] C,4D,4 | 
[V:1] G4z4 | 
[V:2] G2_E2D2G2- | 
[V:3] B2c2d2B2- | 
[V:4] G,,2C,2B,,2_E,2- | 
[V:1] G,4G,2G,2 | 
[V:2] GFD2_E4 | 
[V:3] Bcd2G3A | 
[V:4] E,D,B,,2C,3B,, | 
[V:1] D6G,2 | 
[V:2] D8 | 
[V:3] B8 | 
[V:4] G,,8- | 
[V:1] D2G,2D2E2 | 
[V:2] z8 | 
[V:3] G4G2G2 | 
[V:4] G,,8 | 
[V:1] F4B,4 | 
[V:2] z8 | 
[V:3] d6G2 | 
[V:4] z8 | 
[V:1] B6B2 | 
[V:2] G4G2G2 | 
[V:3] d2G2d2e2 | 
[V:4] z8 | 
[V:1] A4A2B2- | 
[V:2] d6G2 | 
[V:3] f4d2d2- | 
[V:4] z8 | 
[V:1] BAGFG2G2 | 
[V:2] d2G2d2e2 | 
[V:3] dcBAB2B2 | 
[V:4] G,,4G,,2G,,2 | 
[V:1] A4A2B2 | 
[V:2] f4d2d2- | 
[V:3] A2D2F2G2 | 
[V:4] D,6G,,2 | 
[V:1] A2B4AG | 
[V:2] dcBAB2B2 | 
[V:3] D2G2F2G2 | 
[V:4] D,2G,,2D,2E,2 | 
[V:1] A4A2B2- | 
[V:2] A2d2c2B2 | 
[V:3] DEFGA2GA | 
[V:4] F,4F,2G,2- | 
[V:1] BAGFG2G2 | 
[V:2] G4G4 | 
[V:3] Bcd3^c^c=B | 
[V:4] G,F,E,D,E,2E,2 | 
[V:1] F8 |]  
[V:2] A8 |]  
[V:3] d8 |]  
[V:4] D,8 |]  



